build/img/arrow-up-tablet.svg

<svg width="108" height="37" viewBox="0 0 108 37" fill="none" xmlns="http://www.w3.org/2000/svg">
<path d="M98.0406 17.4557C97.8397 17.2307 97.5487 17.0937 97.2123 17.1362C96.9173 17.1729 96.6224 17.2086 96.3272 17.2463C98.7648 16.0964 101.128 14.7974 103.429 13.3512C101.604 16.4671 99.7392 19.5566 97.8221 22.6129C98.0786 21.2558 98.3342 19.8986 98.5906 18.5416C98.693 17.9991 98.4165 17.6288 98.0406 17.4557ZM39.96 8.647C47.1571 9.87672 44.7389 18.1895 39.8313 20.4896C36.6731 21.969 32.7104 21.9508 29.3336 21.56C28.1777 15.0253 32.4874 7.37071 39.96 8.647ZM105.983 9.11287C100.408 13.137 94.4244 16.188 87.9446 18.3237C86.8252 18.6939 87.2294 20.5193 88.3924 20.3755C90.4593 20.116 92.5249 19.8582 94.5906 19.6004C86.8974 27.4539 76.6453 31.6574 65.9615 33.2888C54.9606 34.9701 37.8283 36.2891 30.8575 25.5234C30.4908 24.9577 30.1912 24.3565 29.9455 23.7335C34.769 24.2039 40.3129 23.7661 43.8828 20.215C46.8019 17.3113 47.9533 12.2581 45.0052 8.97912C37.3988 0.514704 25.5657 12.1181 26.9703 21.1997C15.9012 19.0796 6.61304 11.1907 1.78727 0.826359C1.4531 0.109149 0.341198 0.497792 0.629307 1.27039C4.97818 12.9166 15.4728 21.4245 27.4967 23.4015C31.3134 35.6958 47.5386 36.6807 58.1638 36.1862C72.0011 35.5453 86.015 31.2964 95.9979 21.1531C95.5984 23.2672 95.1998 25.3814 94.8002 27.4955C94.6172 28.4633 96.0129 29.2678 96.602 28.3576C100.406 22.4879 104.041 16.5147 107.504 10.4296C108.044 9.48041 106.787 8.53186 105.983 9.11287Z" fill="#8DD9E5"/>
<path d="M98.0406 17.4557C97.8397 17.2307 97.5487 17.0937 97.2123 17.1362C96.9173 17.1729 96.6224 17.2086 96.3272 17.2463C98.7648 16.0964 101.128 14.7974 103.429 13.3512C101.604 16.4671 99.7392 19.5566 97.8221 22.6129C98.0786 21.2558 98.3342 19.8986 98.5906 18.5416C98.693 17.9991 98.4165 17.6288 98.0406 17.4557ZM39.96 8.647C47.1571 9.87672 44.7389 18.1895 39.8313 20.4896C36.6731 21.969 32.7104 21.9508 29.3336 21.56C28.1777 15.0253 32.4874 7.37071 39.96 8.647ZM105.983 9.11287C100.408 13.137 94.4244 16.188 87.9446 18.3237C86.8252 18.6939 87.2294 20.5193 88.3924 20.3755C90.4593 20.116 92.5249 19.8582 94.5906 19.6004C86.8974 27.4539 76.6453 31.6574 65.9615 33.2888C54.9606 34.9701 37.8283 36.2891 30.8575 25.5234C30.4908 24.9577 30.1912 24.3565 29.9455 23.7335C34.769 24.2039 40.3129 23.7661 43.8828 20.215C46.8019 17.3113 47.9533 12.2581 45.0052 8.97912C37.3988 0.514704 25.5657 12.1181 26.9703 21.1997C15.9012 19.0796 6.61304 11.1907 1.78727 0.826359C1.4531 0.109149 0.341198 0.497792 0.629307 1.27039C4.97818 12.9166 15.4728 21.4245 27.4967 23.4015C31.3134 35.6958 47.5386 36.6807 58.1638 36.1862C72.0011 35.5453 86.015 31.2964 95.9979 21.1531C95.5984 23.2672 95.1998 25.3814 94.8002 27.4955C94.6172 28.4633 96.0129 29.2678 96.602 28.3576C100.406 22.4879 104.041 16.5147 107.504 10.4296C108.044 9.48041 106.787 8.53186 105.983 9.11287Z" fill="#5879E8"/>
</svg>

<svg width="108" height="37" fill="none" xmlns="http://www.w3.org/2000/svg"><path d="M98.04 17.456a.936.936 0 00-.828-.32l-.885.11a67.251 67.251 0 007.102-3.895 356.346 356.346 0 01-5.607 9.262l.769-4.071c.102-.543-.174-.913-.55-1.086zM39.96 8.647c7.197 1.23 4.779 9.542-.129 11.843-3.158 1.479-7.12 1.46-10.497 1.07-1.156-6.535 3.153-14.19 10.626-12.913zm66.023.466a65.715 65.715 0 01-18.038 9.21c-1.12.37-.716 2.196.447 2.052l6.199-.775c-7.694 7.854-17.946 12.057-28.63 13.689-11 1.681-28.133 3-35.103-7.766a10.077 10.077 0 01-.913-1.79c4.824.47 10.368.033 13.938-3.518 2.919-2.904 4.07-7.957 1.122-11.236C37.4.515 25.565 12.12 26.97 21.2 15.901 19.08 6.613 11.192 1.787.827 1.453.11.341.498.63 1.27c4.35 11.647 14.844 20.154 26.868 22.131 3.816 12.295 20.042 13.28 30.667 12.785 13.837-.64 27.851-4.89 37.834-15.033L94.8 27.496c-.183.967 1.213 1.772 1.802.862a363.985 363.985 0 0010.902-17.928c.54-.95-.717-1.898-1.521-1.317z" fill="#8DD9E5"/><path d="M98.04 17.456a.936.936 0 00-.828-.32l-.885.11a67.251 67.251 0 007.102-3.895 356.346 356.346 0 01-5.607 9.262l.769-4.071c.102-.543-.174-.913-.55-1.086zM39.96 8.647c7.197 1.23 4.779 9.542-.129 11.843-3.158 1.479-7.12 1.46-10.497 1.07-1.156-6.535 3.153-14.19 10.626-12.913zm66.023.466a65.715 65.715 0 01-18.038 9.21c-1.12.37-.716 2.196.447 2.052l6.199-.775c-7.694 7.854-17.946 12.057-28.63 13.689-11 1.681-28.133 3-35.103-7.766a10.077 10.077 0 01-.913-1.79c4.824.47 10.368.033 13.938-3.518 2.919-2.904 4.07-7.957 1.122-11.236C37.4.515 25.565 12.12 26.97 21.2 15.901 19.08 6.613 11.192 1.787.827 1.453.11.341.498.63 1.27c4.35 11.647 14.844 20.154 26.868 22.131 3.816 12.295 20.042 13.28 30.667 12.785 13.837-.64 27.851-4.89 37.834-15.033L94.8 27.496c-.183.967 1.213 1.772 1.802.862a363.985 363.985 0 0010.902-17.928c.54-.95-.717-1.898-1.521-1.317z" fill="#5879E8"/></svg>
